!!!OTL: Das Maedchen und der Faehnrich Es wohnt ein reicher Metzger mein,
!!!ARE: Europa, Mitteleuropa, Deutschland / France, Lothringen
!!!YOR: 6, S. 107
!!    1928 gedruckt in Heidelberg
!!!SCT: Q0127D
!!!YEM: Copyright 1995, estate of Helmut Schaffrath.
**kern
*ICvox
*Ivox
*M6/8
*k[f#]
*G:
{8d
=1
8d
8g
8g
4g
8b
=2
4dd
8cc
4b}
{8dd
=3
4cc
16cc
16cc
8a
8g
8b
=4
4cc
8dd
4a}
{16d
16d
=5
4d
8g
4f#
8b
=6
4dd
8dd
4b}
{8dd
=7
8dd
8cc
8cc
8a
8b
8cc
=8
4cc
8dd
4b}
==
!!!AGN: Ballade, verbotene Liebe, Flucht
!! Taktart entsprechend der Takteinteilung als 6/8 bezeichnet.
!!!ONB: ESAC (Essen Associative Code) Database: BALLADE
!!!AMT: compound duple
!!!AIN: vox
!!!EED: Helmut Schaffrath
!!!EEV: 1.0
*-
